TileServer und Tiles/svg/9/90_3.svg

<?xml version='1.0' encoding='UTF-8' standalone='no'?>
<svg xmlns="http://www.w3.org/2000/svg" width="497pt" viewBox="0 0 497 279" xmlns:xlink="http://www.w3.org/1999/xlink" height="279pt">
 <defs style="stroke:none;" overflow="visible">
  <path id="glyph0-9" d="M 4.34375 -1.484375 C 4.34375 -0.960938 4.148438 -0.566406 3.765625 -0.296875 C 3.378906 -0.0351562 2.859375 0.09375 2.203125 0.09375 C 1.828125 0.09375 1.503906 0.0625 1.234375 0 C 0.960938 -0.0507812 0.722656 -0.128906 0.515625 -0.234375 L 0.515625 -1.046875 C 0.734375 -0.929688 0.992188 -0.828125 1.296875 -0.734375 C 1.597656 -0.648438 1.90625 -0.609375 2.21875 -0.609375 C 2.664062 -0.609375 2.988281 -0.679688 3.1875 -0.828125 C 3.382812 -0.972656 3.484375 -1.164062 3.484375 -1.40625 C 3.484375 -1.53125 3.445312 -1.644531 3.375 -1.75 C 3.300781 -1.863281 3.171875 -1.972656 2.984375 -2.078125 C 2.796875 -2.179688 2.523438 -2.300781 2.171875 -2.4375 C 1.828125 -2.570312 1.53125 -2.707031 1.28125 -2.84375 C 1.03125 -2.976562 0.835938 -3.132812 0.703125 -3.3125 C 0.578125 -3.5 0.515625 -3.742188 0.515625 -4.046875 C 0.515625 -4.492188 0.695312 -4.835938 1.0625 -5.078125 C 1.4375 -5.328125 1.921875 -5.453125 2.515625 -5.453125 C 2.847656 -5.453125 3.15625 -5.421875 3.4375 -5.359375 C 3.71875 -5.296875 3.984375 -5.207031 4.234375 -5.09375 L 3.9375 -4.40625 C 3.707031 -4.5 3.46875 -4.578125 3.21875 -4.640625 C 2.96875 -4.703125 2.710938 -4.734375 2.453125 -4.734375 C 2.097656 -4.734375 1.820312 -4.675781 1.625 -4.5625 C 1.4375 -4.445312 1.34375 -4.289062 1.34375 -4.09375 C 1.34375 -3.945312 1.382812 -3.820312 1.46875 -3.71875 C 1.5625 -3.613281 1.707031 -3.507812 1.90625 -3.40625 C 2.113281 -3.3125 2.390625 -3.195312 2.734375 -3.0625 C 3.066406 -2.9375 3.351562 -2.804688 3.59375 -2.671875 C 3.832031 -2.546875 4.015625 -2.382812 4.140625 -2.1875 C 4.273438 -2 4.34375 -1.765625 4.34375 -1.484375 Z M 4.34375 -1.484375 "/>
  <path id="glyph0-8" d="M 1.734375 0 L 0.84375 0 L 0.84375 -7.59375 L 1.734375 -7.59375 Z M 1.734375 0 "/>
  <path id="glyph0-7" d="M 2.875 -5.453125 C 3.53125 -5.453125 4.015625 -5.304688 4.328125 -5.015625 C 4.640625 -4.734375 4.796875 -4.28125 4.796875 -3.65625 L 4.796875 0 L 4.15625 0 L 3.984375 -0.765625 L 3.953125 -0.765625 C 3.710938 -0.460938 3.460938 -0.242188 3.203125 -0.109375 C 2.953125 0.0234375 2.601562 0.09375 2.15625 0.09375 C 1.664062 0.09375 1.257812 -0.03125 0.9375 -0.28125 C 0.613281 -0.539062 0.453125 -0.941406 0.453125 -1.484375 C 0.453125 -2.023438 0.660156 -2.4375 1.078125 -2.71875 C 1.503906 -3.007812 2.15625 -3.171875 3.03125 -3.203125 L 3.9375 -3.234375 L 3.9375 -3.546875 C 3.9375 -3.992188 3.835938 -4.300781 3.640625 -4.46875 C 3.453125 -4.644531 3.179688 -4.734375 2.828125 -4.734375 C 2.546875 -4.734375 2.28125 -4.691406 2.03125 -4.609375 C 1.78125 -4.523438 1.539062 -4.429688 1.3125 -4.328125 L 1.046875 -4.984375 C 1.285156 -5.117188 1.5625 -5.226562 1.875 -5.3125 C 2.195312 -5.40625 2.53125 -5.453125 2.875 -5.453125 Z M 3.9375 -2.625 L 3.140625 -2.59375 C 2.472656 -2.5625 2.007812 -2.453125 1.75 -2.265625 C 1.5 -2.078125 1.375 -1.816406 1.375 -1.484375 C 1.375 -1.179688 1.460938 -0.957031 1.640625 -0.8125 C 1.828125 -0.675781 2.0625 -0.609375 2.34375 -0.609375 C 2.800781 -0.609375 3.179688 -0.734375 3.484375 -0.984375 C 3.785156 -1.234375 3.9375 -1.617188 3.9375 -2.140625 Z M 3.9375 -2.625 "/>
  <path id="glyph0-6" d="M 1.875 0 L 0.96875 0 L 0.96875 -7.140625 L 4.953125 -7.140625 L 4.953125 -6.34375 L 1.875 -6.34375 L 1.875 -3.8125 L 4.765625 -3.8125 L 4.765625 -3.03125 L 1.875 -3.03125 Z M 1.875 0 "/>
  <path id="glyph0-5" d=""/>
  <path id="glyph0-4" d="M 3.4375 -5.453125 C 4.070312 -5.453125 4.550781 -5.296875 4.875 -4.984375 C 5.207031 -4.679688 5.375 -4.179688 5.375 -3.484375 L 5.375 0 L 4.5 0 L 4.5 -3.4375 C 4.5 -4.289062 4.097656 -4.71875 3.296875 -4.71875 C 2.703125 -4.71875 2.289062 -4.550781 2.0625 -4.21875 C 1.84375 -3.882812 1.734375 -3.40625 1.734375 -2.78125 L 1.734375 0 L 0.84375 0 L 0.84375 -5.359375 L 1.5625 -5.359375 L 1.6875 -4.625 L 1.734375 -4.625 C 1.910156 -4.90625 2.148438 -5.113281 2.453125 -5.25 C 2.765625 -5.382812 3.09375 -5.453125 3.4375 -5.453125 Z M 3.4375 -5.453125 "/>
  <path id="glyph0-3" d="M 1.296875 -7.375 C 1.429688 -7.375 1.550781 -7.328125 1.65625 -7.234375 C 1.757812 -7.140625 1.8125 -7 1.8125 -6.8125 C 1.8125 -6.625 1.757812 -6.484375 1.65625 -6.390625 C 1.550781 -6.296875 1.429688 -6.25 1.296875 -6.25 C 1.148438 -6.25 1.023438 -6.296875 0.921875 -6.390625 C 0.828125 -6.484375 0.78125 -6.625 0.78125 -6.8125 C 0.78125 -7 0.828125 -7.140625 0.921875 -7.234375 C 1.023438 -7.328125 1.148438 -7.375 1.296875 -7.375 Z M 1.734375 -5.359375 L 1.734375 0 L 0.84375 0 L 0.84375 -5.359375 Z M 1.734375 -5.359375 "/>
  <path id="glyph0-2" d="M 5.234375 -0.015625 L 4.3125 -3.03125 C 4.226562 -3.300781 4.148438 -3.566406 4.078125 -3.828125 C 4.015625 -4.097656 3.96875 -4.304688 3.9375 -4.453125 L 3.90625 -4.453125 C 3.875 -4.304688 3.828125 -4.097656 3.765625 -3.828125 C 3.710938 -3.566406 3.640625 -3.296875 3.546875 -3.015625 L 2.578125 -0.015625 L 1.578125 -0.015625 L 0.109375 -5.375 L 1.015625 -5.375 L 1.765625 -2.515625 C 1.835938 -2.222656 1.90625 -1.929688 1.96875 -1.640625 C 2.03125 -1.347656 2.078125 -1.101562 2.109375 -0.90625 L 2.15625 -0.90625 C 2.175781 -1.019531 2.203125 -1.160156 2.234375 -1.328125 C 2.273438 -1.492188 2.316406 -1.664062 2.359375 -1.84375 C 2.410156 -2.03125 2.460938 -2.195312 2.515625 -2.34375 L 3.453125 -5.375 L 4.421875 -5.375 L 5.34375 -2.34375 C 5.414062 -2.125 5.484375 -1.878906 5.546875 -1.609375 C 5.617188 -1.335938 5.671875 -1.109375 5.703125 -0.921875 L 5.734375 -0.921875 C 5.753906 -1.085938 5.800781 -1.316406 5.875 -1.609375 C 5.945312 -1.898438 6.019531 -2.203125 6.09375 -2.515625 L 6.84375 -5.375 L 7.75 -5.375 L 6.265625 -0.015625 Z M 5.234375 -0.015625 "/>
  <path id="glyph0-1" d="M 3.234375 0 L 2.328125 0 L 2.328125 -6.34375 L 0.09375 -6.34375 L 0.09375 -7.140625 L 5.453125 -7.140625 L 5.453125 -6.34375 L 3.234375 -6.34375 Z M 3.234375 0 "/>
  <path id="glyph0-0" d="M 0.9375 0 L 0.9375 -7.140625 L 5.046875 -7.140625 L 5.046875 0 Z M 1.453125 -0.515625 L 4.546875 -0.515625 L 4.546875 -6.625 L 1.453125 -6.625 Z M 1.453125 -0.515625 "/>
 </defs>
 <image width="497" xlink:href="svg/9/90_3.jpg" height="279"/>
 <g>
  <path d="M 258.414062 138.34375 L 257.507812 138.34375 L 257.507812 132 L 255.273438 132 L 255.273438 131.203125 L 260.632812 131.203125 L 260.632812 132 L 258.414062 132 Z M 258.414062 138.34375 " transform=" rotate(  340 278.13 135.343) " style="fill:none;stroke-width:3;stroke-linecap:butt;stroke-linejoin:round;stroke:rgb(100%,100%,100%);stroke-opacity:0.6;stroke-miterlimit:10;"/>
  <path d="M 265.773438 138.328125 L 264.851562 135.3125 C 264.765625 135.042969 264.6875 134.777344 264.617188 134.515625 C 264.554688 134.246094 264.507812 134.039062 264.476562 133.890625 L 264.445312 133.890625 C 264.414062 134.039062 264.367188 134.246094 264.304688 134.515625 C 264.25 134.777344 264.179688 135.046875 264.085938 135.328125 L 263.117188 138.328125 L 262.117188 138.328125 L 260.648438 132.96875 L 261.554688 132.96875 L 262.304688 135.828125 C 262.375 136.121094 262.445312 136.414062 262.507812 136.703125 C 262.570312 136.996094 262.617188 137.242188 262.648438 137.4375 L 262.695312 137.4375 C 262.714844 137.324219 262.742188 137.183594 262.773438 137.015625 C 262.8125 136.851562 262.855469 136.679688 262.898438 136.5 C 262.949219 136.3125 263 136.148438 263.054688 136 L 263.992188 132.96875 L 264.960938 132.96875 L 265.882812 136 C 265.953125 136.21875 266.023438 136.464844 266.085938 136.734375 C 266.15625 137.007812 266.210938 137.234375 266.242188 137.421875 L 266.273438 137.421875 C 266.292969 137.257812 266.339844 137.027344 266.414062 136.734375 C 266.484375 136.445312 266.558594 136.140625 266.632812 135.828125 L 267.382812 132.96875 L 268.289062 132.96875 L 266.804688 138.328125 Z M 265.773438 138.328125 " transform=" rotate(  340 278.13 135.343) " style="fill:none;stroke-width:3;stroke-linecap:butt;stroke-linejoin:round;stroke:rgb(100%,100%,100%);stroke-opacity:0.6;stroke-miterlimit:10;"/>
  <path d="M 269.695312 130.96875 C 269.828125 130.96875 269.949219 131.015625 270.054688 131.109375 C 270.15625 131.203125 270.210938 131.34375 270.210938 131.53125 C 270.210938 131.71875 270.15625 131.859375 270.054688 131.953125 C 269.949219 132.046875 269.828125 132.09375 269.695312 132.09375 C 269.546875 132.09375 269.421875 132.046875 269.320312 131.953125 C 269.226562 131.859375 269.179688 131.71875 269.179688 131.53125 C 269.179688 131.34375 269.226562 131.203125 269.320312 131.109375 C 269.421875 131.015625 269.546875 130.96875 269.695312 130.96875 Z M 270.132812 132.984375 L 270.132812 138.34375 L 269.242188 138.34375 L 269.242188 132.984375 Z M 270.132812 132.984375 " transform=" rotate(  340 278.13 135.343) " style="fill:none;stroke-width:3;stroke-linecap:butt;stroke-linejoin:round;stroke:rgb(100%,100%,100%);stroke-opacity:0.6;stroke-miterlimit:10;"/>
  <path d="M 274.417969 132.890625 C 275.050781 132.890625 275.53125 133.046875 275.855469 133.359375 C 276.1875 133.664062 276.355469 134.164062 276.355469 134.859375 L 276.355469 138.34375 L 275.480469 138.34375 L 275.480469 134.90625 C 275.480469 134.054688 275.078125 133.625 274.277344 133.625 C 273.683594 133.625 273.269531 133.792969 273.042969 134.125 C 272.824219 134.460938 272.714844 134.9375 272.714844 135.5625 L 272.714844 138.34375 L 271.824219 138.34375 L 271.824219 132.984375 L 272.542969 132.984375 L 272.667969 133.71875 L 272.714844 133.71875 C 272.890625 133.4375 273.128906 133.230469 273.433594 133.09375 C 273.746094 132.960938 274.074219 132.890625 274.417969 132.890625 Z M 274.417969 132.890625 " transform=" rotate(  340 278.13 135.343) " style="fill:none;stroke-width:3;stroke-linecap:butt;stroke-linejoin:round;stroke:rgb(100%,100%,100%);stroke-opacity:0.6;stroke-miterlimit:10;"/>
  <path d="M 281.636719 138.34375 L 280.730469 138.34375 L 280.730469 131.203125 L 284.714844 131.203125 L 284.714844 132 L 281.636719 132 L 281.636719 134.53125 L 284.527344 134.53125 L 284.527344 135.3125 L 281.636719 135.3125 Z M 281.636719 138.34375 " transform=" rotate(  340 278.13 135.343) " style="fill:none;stroke-width:3;stroke-linecap:butt;stroke-linejoin:round;stroke:rgb(100%,100%,100%);stroke-opacity:0.6;stroke-miterlimit:10;"/>
  <path d="M 287.824219 132.890625 C 288.480469 132.890625 288.964844 133.039062 289.277344 133.328125 C 289.589844 133.609375 289.746094 134.0625 289.746094 134.6875 L 289.746094 138.34375 L 289.105469 138.34375 L 288.933594 137.578125 L 288.902344 137.578125 C 288.660156 137.882812 288.410156 138.101562 288.152344 138.234375 C 287.902344 138.367188 287.550781 138.4375 287.105469 138.4375 C 286.613281 138.4375 286.207031 138.3125 285.886719 138.0625 C 285.5625 137.804688 285.402344 137.402344 285.402344 136.859375 C 285.402344 136.320312 285.609375 135.90625 286.027344 135.625 C 286.453125 135.335938 287.105469 135.171875 287.980469 135.140625 L 288.886719 135.109375 L 288.886719 134.796875 C 288.886719 134.351562 288.785156 134.042969 288.589844 133.875 C 288.402344 133.699219 288.128906 133.609375 287.777344 133.609375 C 287.496094 133.609375 287.230469 133.652344 286.980469 133.734375 C 286.730469 133.820312 286.488281 133.914062 286.261719 134.015625 L 285.996094 133.359375 C 286.234375 133.226562 286.511719 133.117188 286.824219 133.03125 C 287.144531 132.9375 287.480469 132.890625 287.824219 132.890625 Z M 288.886719 135.71875 L 288.089844 135.75 C 287.421875 135.78125 286.957031 135.890625 286.699219 136.078125 C 286.449219 136.265625 286.324219 136.527344 286.324219 136.859375 C 286.324219 137.164062 286.410156 137.386719 286.589844 137.53125 C 286.777344 137.667969 287.011719 137.734375 287.292969 137.734375 C 287.75 137.734375 288.128906 137.609375 288.433594 137.359375 C 288.734375 137.109375 288.886719 136.726562 288.886719 136.203125 Z M 288.886719 135.71875 " transform=" rotate(  340 278.13 135.343) " style="fill:none;stroke-width:3;stroke-linecap:butt;stroke-linejoin:round;stroke:rgb(100%,100%,100%);stroke-opacity:0.6;stroke-miterlimit:10;"/>
  <path d="M 292.292969 138.34375 L 291.402344 138.34375 L 291.402344 130.75 L 292.292969 130.75 Z M 292.292969 138.34375 " transform=" rotate(  340 278.13 135.343) " style="fill:none;stroke-width:3;stroke-linecap:butt;stroke-linejoin:round;stroke:rgb(100%,100%,100%);stroke-opacity:0.6;stroke-miterlimit:10;"/>
  <path d="M 294.875 138.34375 L 293.984375 138.34375 L 293.984375 130.75 L 294.875 130.75 Z M 294.875 138.34375 " transform=" rotate(  340 278.13 135.343) " style="fill:none;stroke-width:3;stroke-linecap:butt;stroke-linejoin:round;stroke:rgb(100%,100%,100%);stroke-opacity:0.6;stroke-miterlimit:10;"/>
  <path d="M 300.0625 136.859375 C 300.0625 137.382812 299.867188 137.777344 299.484375 138.046875 C 299.097656 138.308594 298.578125 138.4375 297.921875 138.4375 C 297.546875 138.4375 297.222656 138.40625 296.953125 138.34375 C 296.679688 138.292969 296.441406 138.214844 296.234375 138.109375 L 296.234375 137.296875 C 296.453125 137.414062 296.710938 137.515625 297.015625 137.609375 C 297.316406 137.695312 297.625 137.734375 297.9375 137.734375 C 298.382812 137.734375 298.707031 137.664062 298.90625 137.515625 C 299.101562 137.371094 299.203125 137.179688 299.203125 136.9375 C 299.203125 136.8125 299.164062 136.699219 299.09375 136.59375 C 299.019531 136.480469 298.890625 136.371094 298.703125 136.265625 C 298.515625 136.164062 298.242188 136.042969 297.890625 135.90625 C 297.546875 135.773438 297.25 135.636719 297 135.5 C 296.75 135.367188 296.554688 135.210938 296.421875 135.03125 C 296.296875 134.84375 296.234375 134.601562 296.234375 134.296875 C 296.234375 133.851562 296.414062 133.507812 296.78125 133.265625 C 297.15625 133.015625 297.640625 132.890625 298.234375 132.890625 C 298.566406 132.890625 298.875 132.921875 299.15625 132.984375 C 299.4375 133.046875 299.703125 133.136719 299.953125 133.25 L 299.65625 133.9375 C 299.425781 133.84375 299.1875 133.765625 298.9375 133.703125 C 298.6875 133.640625 298.429688 133.609375 298.171875 133.609375 C 297.816406 133.609375 297.539062 133.667969 297.34375 133.78125 C 297.15625 133.898438 297.0625 134.054688 297.0625 134.25 C 297.0625 134.398438 297.101562 134.523438 297.1875 134.625 C 297.28125 134.730469 297.425781 134.835938 297.625 134.9375 C 297.832031 135.03125 298.109375 135.148438 298.453125 135.28125 C 298.785156 135.40625 299.070312 135.539062 299.3125 135.671875 C 299.550781 135.796875 299.734375 135.960938 299.859375 136.15625 C 299.992188 136.34375 300.0625 136.578125 300.0625 136.859375 Z M 300.0625 136.859375 " transform=" rotate(  340 278.13 135.343) " style="fill:none;stroke-width:3;stroke-linecap:butt;stroke-linejoin:round;stroke:rgb(100%,100%,100%);stroke-opacity:0.6;stroke-miterlimit:10;"/>
  <g transform=" rotate(  340 278.13 135.343) " style="fill:rgb(13.333333%,13.333333%,13.333333%);fill-opacity:1;">
   <use xlink:href="#glyph0-1" y="138.342821" x="255.180378"/>
   <use xlink:href="#glyph0-2" y="138.342821" x="260.540378"/>
   <use xlink:href="#glyph0-3" y="138.342821" x="268.400378"/>
   <use xlink:href="#glyph0-4" y="138.342821" x="270.980378"/>
   <use xlink:href="#glyph0-5" y="138.342821" x="277.160378"/>
   <use xlink:href="#glyph0-6" y="138.342821" x="279.760378"/>
   <use xlink:href="#glyph0-7" y="138.342821" x="284.950378"/>
   <use xlink:href="#glyph0-8" y="138.342821" x="290.560378"/>
   <use xlink:href="#glyph0-8" y="138.342821" x="293.140378"/>
   <use xlink:href="#glyph0-9" y="138.342821" x="295.720378"/>
  </g>
 </g>
</svg>

<svg xmlns="http://www.w3.org/2000/svg" xmlns:xlink="http://www.w3.org/1999/xlink" viewBox="0 0 497 279"> <defs overflow="visible" style="stroke:none">  <path id="h" d="M4.3-1.5c0 .5-.2 1-.5 1.2-.4.3-1 .4-1.6.4l-1-.1-.7-.2V-1l.8.3h1.8l.4-.7-.1-.4L3-2a7.5 7.5 0 0 0-.8-.4 7.5 7.5 0 0 1-1-.4l-.4-.5L.5-4c0-.5.2-.8.6-1 .3-.4.8-.6 1.4-.6l1 .2a4 4 0 0 1 .6.4l-.1.6-.8-.2-.7-.1-.9.1c-.2.2-.3.3-.3.6s0 .2.2.3l.4.3.8.3.9.4.4.5c.3.2.3.4.3.7Zm0 0"/>  <path id="g" d="M1.7 0H.8v-7.6h1Zm0 0"/>  <path id="f" d="M2.9-5.5c.6 0 1.1.2 1.4.5.3.3.5.7.5 1.3V0h-.6L4-.8c-.3.3-.5.6-.8.8h-1c-.5 0-1 0-1.3-.3C.6-.5.5-.9.5-1.5c0-.5.2-1 .5-1.2.5-.3 1-.5 2-.5h.8v-.3c.2-.5.2-.8-.2-1l-.8-.2H2l-.7.5L1-5l1-.3.9-.2Zm1 2.9h-.8c-.6 0-1 .1-1.4.3-.1.3-.3.5-.3.8 0 .3 0 .5.2.7l.7.2c.5 0 .9-.1 1.2-.4.3-.2.4-.6.4-1Zm.1 0"/>  <path id="e" d="M1.9 0h-1v-7.1H5v.8H2v2.5h2.8v.8h-3Zm0 0"/>  <path id="d" d="M3.4-5.5c.7 0 1.2.2 1.6.5.2.3.4.8.4 1.5V0h-.9v-3.4c0-.9-.4-1.3-1.2-1.3-.6 0-1 .1-1.2.5-.3.2-.4.8-.4 1.4V0H.8v-5.4h.8v.8h.2c.2-.4.3-.5.7-.7l1-.2Zm0 0"/>  <path id="c" d="M1.3-7.4c.1 0 .3 0 .4.2l.1.4-.1.4-.4.2-.4-.3-.1-.3.1-.4.4-.2Zm.4 2V0H.8v-5.4Zm0 0"/>  <path id="b" d="m5.2 0-.9-3A18 18 0 0 1 4-4.5 34.3 34.3 0 0 1 3.5-3l-1 3h-.9L.2-5.4h.9l.6 2.9A40 40 0 0 1 2-1l.3-.3.1-.5a6 6 0 0 1 .1-.5l1-3h1l.7 2.9.3.8.2.6.3-.6v-1l.8-2.7h1L6.3 0Zm0 0"/>  <path id="a" d="M3.2 0h-.9v-6.3H.1v-.8h5.4v.8H3.2Zm0 0"/>  <path d="M1 0v-7.1h4V0Zm.4-.5h3.1v-6.1h-3Zm.1 0"/> </defs> <image xlink:href="svg/9/90_3.jpg" width="497" height="279"/> <path d="M258.4 138.3h-.9V132h-2.2v-.8h5.3v.8h-2.2Zm7.4 0-1-3a18 18 0 0 1-.2-1.3 34.3 34.3 0 0 1-.6 1.3l-1 3h-.9l-1.5-5.3h1l.7 2.8.2.9.1.7h.1v-.4l.3-.5a6 6 0 0 1 .1-.5l.9-3h1l.9 3 .1.7.2.7.3-.7.1-.9.8-2.8h.9l-1.5 5.3Zm3.9-7.3h.4l.1.5-.1.5h-.8l-.1-.5.1-.4.4-.1Zm.4 2v5.3h-.9V133Zm4.3-.1c.7 0 1.1.1 1.6.5.2.3.4.8.4 1.5v3.4h-1V135c.1-.9-.2-1.4-1-1.4-.7 0-1.1.2-1.4.5-.2.4-.3.9-.3 1.5v2.7h-.9V133h.7l.2.7c.3-.3.4-.5.7-.6l1-.2Zm7.2 5.4h-.9v-7.1h4v.8h-3v2.5h2.7v.8h-2.8Zm6.2-5.4c.7 0 1.2.1 1.5.4.3.3.4.8.4 1.4v3.6h-.6l-.1-.7-.8.6c-.3.2-.6.2-1 .2-.7 0-1.1 0-1.4-.3-.2-.3-.4-.7-.4-1.2 0-.6.2-1 .6-1.3.5-.3 1.1-.4 2-.5h.9v-.3c0-.4-.1-.8-.3-1l-.8-.1h-.8l-.7.3-.3-.6.8-.4h1Zm1 2.8h-.6c-.8.1-1.2.3-1.5.5-.3.1-.4.3-.4.7 0 .3.1.5.3.6.2.2.4.2.7.2.4 0 .7 0 1.1-.3.3-.4.6-.7.6-1.2Zm3.5 2.6h-.9v-7.6h.9Zm2.6 0h-1v-7.6h1.1Zm5.1-1.4c0 .5 0 .9-.4 1.1-.6.3-1.1.4-1.7.4h-.9l-.7-.4v-.7l.7.3 1 .1c.3 0 .6 0 1-.2l.1-.5v-.4l-.4-.3a7.5 7.5 0 0 0-.8-.4 7.5 7.5 0 0 1-.9-.4c-.3-.1-.4-.3-.6-.5l-.2-.7c0-.4.2-.8.6-1 .4-.3.8-.4 1.4-.4h1a4 4 0 0 1 .8.4l-.3.7-.8-.3h-1.6l-.2.7v.2l.6.4.8.3.8.4c.3.1.4.3.7.5v.7Zm0 0" style="fill:none;stroke-width:3;stroke-linecap:butt;stroke-linejoin:round;stroke:#fff;stroke-opacity:.6;stroke-miterlimit:10" transform=" rotate(  340 278.13 135.343) "/> <g style="fill:#222;fill-opacity:1" transform=" rotate(  340 278.13 135.343) ">  <use xlink:href="#a" x="255.2" y="138.3"/>  <use xlink:href="#b" x="260.5" y="138.3"/>  <use xlink:href="#c" x="268.4" y="138.3"/>  <use xlink:href="#d" x="271" y="138.3"/>  <use xlink:href="#glyph0-5" x="277.2" y="138.3"/>  <use xlink:href="#e" x="279.8" y="138.3"/>  <use xlink:href="#f" x="285" y="138.3"/>  <use xlink:href="#g" x="290.6" y="138.3"/>  <use xlink:href="#g" x="293.1" y="138.3"/>  <use xlink:href="#h" x="295.7" y="138.3"/> </g></svg>
